libs/shared/images/icons-sharp-light/file-contract.svg

<svg xmlns="http://www.w3.org/2000/svg" viewBox="0 0 384 512"><defs><style>.fa-secondary{opacity:.4}</style></defs><path class="fa-secondary" d="M0 0L224 0l0 160 160 0 0 352L0 512 0 0zM64 64l0 32 16 0 64 0 16 0 0-32-16 0L80 64 64 64zm0 64l0 32 16 0 64 0 16 0 0-32-16 0-64 0-16 0zm0 256l0 32 16 0 32 0 11.9 0 3.4-11.4L144 349l16.7 55.6c1.1 3.8 2.3 7.6 3.4 11.4l11.9 0 8 0 9.9 0 4.4-8.8L209.9 384l12.2 0 11.6 23.2 4.4 8.8 9.9 0 56 0 16 0 0-32-16 0-46.1 0-11.6-23.2-4.4-8.8-9.9 0-32 0-9.9 0-4.4 8.8-3 5.9-15.4-51.4c-1.1-3.8-2.3-7.6-3.4-11.4L152 304l-16 0-11.9 0-3.4 11.4L100.1 384 80 384l-16 0z"/><path class="fa-primary" d="M384 160L224 0l0 160 160 0zM136 304l-11.9 0-3.4 11.4L100.1 384 80 384l-16 0 0 32 16 0 32 0 11.9 0 3.4-11.4L144 349l16.7 55.6 3.4 11.4 11.9 0 8 0 9.9 0 4.4-8.8L209.9 384l12.2 0 11.6 23.2 4.4 8.8 9.9 0 56 0 16 0 0-32-16 0-46.1 0-11.6-23.2-4.4-8.8-9.9 0-32 0-9.9 0-4.4 8.8-3 5.9-15.4-51.4L163.9 304 152 304l-16 0z"/></svg>

<svg xmlns="http://www.w3.org/2000/svg" viewBox="0 0 384 512"><path d="M352 480H32V32H192V176v16h16H352V480zM224 37.3L346.7 160H224V37.3zM232 0H32 0V32 480v32H32 352h32V480 152L232 0zM80 64H64V96H80h64 16V64H144 80zm0 64H64v32H80h64 16V128H144 80zm56 176H124.1l-3.4 11.4L100.1 384H80 64v32H80h32 11.9l3.4-11.4L144 349l16.7 55.6 3.4 11.4H176h8 9.9l4.4-8.8L209.9 384h4.2l11.6 23.2 4.4 8.8H240h64 16V384H304 249.9l-11.6-23.2-4.4-8.8H224 200h-9.9l-4.4 8.8-3 5.9-15.4-51.4L163.9 304H152 136z"/></svg>
